svgs/light/text-width.svg

<svg xmlns="http://www.w3.org/2000/svg" viewBox="0 0 448 512"><!-- Font Awesome Pro 6.0.0-alpha2 by @fontawesome - https://fontawesome.com License - https://fontawesome.com/license (Commercial License) --><path d="M432 32H16C7.156 32 0 39.156 0 48V128C0 136.844 7.156 144 16 144S32 136.844 32 128V64H208V256H160C151.156 256 144 263.156 144 272S151.156 288 160 288H288C296.844 288 304 280.844 304 272S296.844 256 288 256H240V64H416V128C416 136.844 423.156 144 432 144S448 136.844 448 128V48C448 39.156 440.844 32 432 32ZM363.312 292.688C357.062 286.438 346.937 286.438 340.688 292.688S334.438 309.063 340.688 315.312L393.375 368H54.625L107.312 315.312C113.562 309.062 113.562 298.937 107.312 292.688S90.937 286.438 84.688 292.688L4.688 372.688C-1.562 378.938 -1.562 389.063 4.688 395.312L84.688 475.312C87.812 478.438 91.906 480 96 480S104.188 478.438 107.312 475.312C113.562 469.062 113.562 458.937 107.312 452.688L54.625 400H393.375L340.687 452.688C334.437 458.938 334.437 469.063 340.687 475.312C343.812 478.438 347.906 480 352 480S360.188 478.438 363.312 475.312L443.312 395.312C449.562 389.062 449.562 378.937 443.312 372.688L363.312 292.688Z"/></svg>

<svg xmlns="http://www.w3.org/2000/svg" viewBox="0 0 448 512"><!--! Font Awesome Pro 6.3.0 by @fontawesome - https://fontawesome.com License - https://fontawesome.com/license (Commercial License) Copyright 2023 Fonticons, Inc. --><path d="M432 32h-416C7.156 32 0 39.16 0 48v80.01C0 136.9 7.156 144 16 144S32 136.8 32 128V64h176v192H160C151.2 256 144 263.2 144 272S151.2 288 160 288h128c8.844 0 16-7.156 16-16S296.8 256 288 256h-48V64H416v64c0 8.844 7.156 16 16 16S448 136.9 448 128V48C448 39.16 440.8 32 432 32zM363.3 292.7c-6.25-6.25-16.38-6.25-22.62 0s-6.25 16.38 0 22.62L393.4 368H54.63l52.69-52.69c6.25-6.25 6.25-16.38 0-22.62s-16.38-6.25-22.62 0l-80 80c-6.25 6.25-6.25 16.38 0 22.62l80 80C87.81 478.4 91.91 480 96 480s8.188-1.57 11.31-4.695c6.25-6.25 6.25-16.38 0-22.62L54.63 400h338.8l-52.69 52.69c-6.25 6.25-6.25 16.38 0 22.62C343.8 478.4 347.9 480 352 480s8.188-1.57 11.31-4.695l80-80c6.25-6.25 6.25-16.38 0-22.62L363.3 292.7z"/></svg>
